img/icons/misc/comment.svg

<svg fill="none" viewBox="0 0 16 16" xmlns="http://www.w3.org/2000/svg"><path d="m3.2 10.9c0.424 0.266 0.585 0.805 0.378 1.26l-1.04 2.29 4.64-2.32c0.146-0.0732 0.308-0.109 0.472-0.105 0.116 0.0028 0.233 0.0042 0.35 0.0042 2.09 0 3.86-0.443 5.07-1.32 1.17-0.842 1.93-2.15 1.93-4.18 0-2.03-0.762-3.34-1.93-4.18-1.22-0.877-2.98-1.32-5.07-1.32-2.09 0-3.86 0.443-5.07 1.32-1.17 0.841-1.93 2.15-1.93 4.18 0 2.17 0.871 3.53 2.2 4.37zm-1.51 5.09c-0.19 0.0813-0.41 0.0376-0.554-0.11-0.144-0.148-0.183-0.369-0.0978-0.557l1.63-3.58c-1.64-1.03-2.67-2.72-2.67-5.21 0-4.64 3.58-6.5 8-6.5 4.42 0 8 1.86 8 6.5 0 4.64-3.58 6.5-8 6.5-0.126 0-0.251-0.0015-0.375-0.0045l-5.93 2.96z" clip-rule="evenodd" fill="#000" fill-rule="evenodd"/></svg>

<svg xmlns="http://www.w3.org/2000/svg" viewBox="0 0 16 16" fill="none">
  <path fill="#000" fill-rule="evenodd"
    d="M3.204 10.866a1 1 0 0 1 .379 1.26L2.54 14.42l4.638-2.319a.999.999 0 0 1 .472-.105C7.765 12 7.882 12 8 12c2.091 0 3.856-.443 5.072-1.32C14.238 9.84 15 8.527 15 6.5c0-2.027-.762-3.338-1.928-4.18C11.856 1.443 10.092 1 8 1c-2.091 0-3.856.443-5.072 1.32C1.762 3.162 1 4.473 1 6.5c0 2.168.871 3.529 2.204 4.366ZM1.697 15.96a.5.5 0 0 1-.652-.667l1.627-3.58C1.032 10.683 0 8.993 0 6.5 0 1.857 3.582 0 8 0s8 1.857 8 6.5S12.418 13 8 13c-.126 0-.25-.001-.375-.004L1.697 15.96Z"
    clip-rule="evenodd" />
</svg>
